FreePresets/Presetpro - Beautiful Sunrise.lrtemplate
s = {
	id = "FDFF04A5-7956-4DB5-93B5-3163F03E9DB5",
	internalName = "Presetpro - Beautiful Sunrise",
	title = "Presetpro - Beautiful Sunrise",
	type = "Develop",
	value = {
		settings = {
			AutoLateralCA = 1,
			Blacks2012 = 60,
			BlueHue = 0,
			BlueSaturation = 0,
			CameraProfile = "Adobe Standard",
			ChromaticAberrationB = 0,
			ChromaticAberrationR = 0,
			CircularGradientBasedCorrections = {
				{
					CorrectionActive = true,
					CorrectionAmount = 1,
					CorrectionID = "70D37927-B0CB-4CA8-B3E7-A7EFC954C359",
					CorrectionMasks = {
						{
							Angle = 0,
							Bottom = 0.945753,
							Feather = 50,
							Flipped = false,
							Left = 0.074919,
							MaskID = "FB0D0084-543E-4B8F-B70F-2F6686B1B9E9",
							MaskValue = 1,
							Midpoint = 50,
							Right = 0.917276,
							Roundness = 0,
							Top = 0.060925,
							Version = 2,
							What = "Mask/CircularGradient",
						},
					},
					CorrectionReferenceX = 0.496097,
					CorrectionReferenceY = 0.503339,
					LocalBlacks2012 = 0,
					LocalBrightness = 0,
					LocalClarity = 0,
					LocalClarity2012 = -0.25,
					LocalContrast = 0,
					LocalContrast2012 = -0.169141,
					LocalDefringe = 0,
					LocalExposure = 0,
					LocalExposure2012 = -0.044059,
					LocalHighlights2012 = 0,
					LocalLuminanceNoise = 0,
					LocalMoire = 0,
					LocalSaturation = 0,
					LocalShadows2012 = 0,
					LocalSharpness = 0.310865,
					LocalTemperature = 0,
					LocalTint = 0,
					LocalToningHue = 48.5898,
					LocalToningSaturation = 0,
					LocalWhites2012 = 0,
					What = "Correction",
				},
			},
			Clarity2012 = 11,
			ColorNoiseReduction = 14,
			ColorNoiseReductionDetail = 50,
			ColorNoiseReductionSmoothness = 50,
			Contrast2012 = 61,
			ConvertToGrayscale = false,
			CropConstrainToWarp = 0,
			Defringe = 0,
			DefringeGreenAmount = 0,
			DefringeGreenHueHi = 60,
			DefringeGreenHueLo = 40,
			DefringePurpleAmount = 0,
			DefringePurpleHueHi = 70,
			DefringePurpleHueLo = 30,
			Dehaze = 0,
			EnableCalibration = true,
			EnableCircularGradientBasedCorrections = true,
			EnableColorAdjustments = true,
			EnableDetail = true,
			EnableEffects = true,
			EnableGradientBasedCorrections = true,
			EnableLensCorrections = true,
			EnableSplitToning = true,
			EnableTransform = true,
			Exposure2012 = 0.45,
			GradientBasedCorrections = {
				{
					CorrectionActive = true,
					CorrectionAmount = 1,
					CorrectionID = "8F7908EF-39F8-4F98-AC2C-B4D98E8CF5ED",
					CorrectionMasks = {
						{
							FullX = 1.11664,
							FullY = 1.01911,
							MaskID = "EC2D02C0-277F-4737-B774-FD28465C5A11",
							MaskValue = 1,
							What = "Mask/Gradient",
							ZeroX = 1.11664,
							ZeroY = 1.02293,
						},
					},
					CorrectionReferenceX = 1.11664,
					CorrectionReferenceY = 1.02102,
					LocalBrightness = 0,
					LocalClarity = 0,
					LocalClarity2012 = 0,
					LocalContrast = 0,
					LocalContrast2012 = 0,
					LocalDefringe = 0,
					LocalExposure = 0,
					LocalExposure2012 = 0.008224,
					LocalHighlights2012 = 0,
					LocalLuminanceNoise = 0,
					LocalMoire = 0,
					LocalSaturation = 0,
					LocalShadows2012 = 0,
					LocalSharpness = 0,
					LocalTemperature = 0,
					LocalTint = 0,
					LocalToningHue = 240,
					LocalToningSaturation = 0,
					What = "Correction",
				},
				{
					CorrectionActive = true,
					CorrectionAmount = 1,
					CorrectionID = "754AE473-1B45-44E4-A1FF-D7FA16E1137D",
					CorrectionMasks = {
						{
							FullX = 0.440325,
							FullY = -0.00335,
							MaskID = "8840AB76-53A2-48D7-99C5-7F6324035B0D",
							MaskValue = 1,
							What = "Mask/Gradient",
							ZeroX = 0.4406,
							ZeroY = 0.743868,
						},
					},
					CorrectionReferenceX = 0.440462,
					CorrectionReferenceY = 0.370259,
					LocalBlacks2012 = 0,
					LocalBrightness = 0,
					LocalClarity = 0,
					LocalClarity2012 = 0,
					LocalContrast = 0,
					LocalContrast2012 = 0,
					LocalDefringe = 0,
					LocalDehaze = 0.350654,
					LocalExposure = 0,
					LocalExposure2012 = -0.144713,
					LocalHighlights2012 = -0.292878,
					LocalLuminanceNoise = 0,
					LocalMoire = 0,
					LocalSaturation = 0,
					LocalShadows2012 = -0.154978,
					LocalSharpness = 0.04306,
					LocalTemperature = 0,
					LocalTint = 0,
					LocalToningHue = 240,
					LocalToningSaturation = 0,
					LocalWhites2012 = 0,
					What = "Correction",
				},
			},
			GrainAmount = 0,
			GrainFrequency = 50,
			GrainSize = 25,
			GreenHue = 0,
			GreenSaturation = 0,
			Highlights2012 = -35,
			HueAdjustmentAqua = 0,
			HueAdjustmentBlue = 0,
			HueAdjustmentGreen = 0,
			HueAdjustmentMagenta = 0,
			HueAdjustmentOrange = 0,
			HueAdjustmentPurple = 0,
			HueAdjustmentRed = 0,
			HueAdjustmentYellow = 0,
			LensManualDistortionAmount = 0,
			LensProfileEnable = 0,
			LensProfileSetup = "LensDefaults",
			LuminanceAdjustmentAqua = 0,
			LuminanceAdjustmentBlue = 0,
			LuminanceAdjustmentGreen = -1,
			LuminanceAdjustmentMagenta = 0,
			LuminanceAdjustmentOrange = 0,
			LuminanceAdjustmentPurple = 0,
			LuminanceAdjustmentRed = 0,
			LuminanceAdjustmentYellow = 0,
			LuminanceNoiseReductionContrast = 0,
			LuminanceNoiseReductionDetail = 50,
			LuminanceSmoothing = 30,
			ParametricDarks = 0,
			ParametricHighlightSplit = 75,
			ParametricHighlights = -7,
			ParametricLights = 13,
			ParametricMidtoneSplit = 50,
			ParametricShadowSplit = 25,
			ParametricShadows = 9,
			PerspectiveAspect = 0,
			PerspectiveHorizontal = 0,
			PerspectiveRotate = 0,
			PerspectiveScale = 100,
			PerspectiveUpright = 0,
			PerspectiveVertical = 0,
			PerspectiveX = 0,
			PerspectiveY = 0,
			PostCropVignetteAmount = 0,
			PostCropVignetteFeather = 50,
			PostCropVignetteHighlightContrast = 0,
			PostCropVignetteMidpoint = 0,
			PostCropVignetteRoundness = 0,
			PostCropVignetteStyle = 1,
			ProcessVersion = "6.7",
			RedHue = 0,
			RedSaturation = 0,
			Saturation = 0,
			SaturationAdjustmentAqua = 0,
			SaturationAdjustmentBlue = 0,
			SaturationAdjustmentGreen = 0,
			SaturationAdjustmentMagenta = 0,
			SaturationAdjustmentOrange = 17,
			SaturationAdjustmentPurple = 0,
			SaturationAdjustmentRed = 3,
			SaturationAdjustmentYellow = 4,
			ShadowTint = 0,
			Shadows2012 = 31,
			SharpenDetail = 15,
			SharpenEdgeMasking = 0,
			SharpenRadius = 2,
			Sharpness = 80,
			SplitToningBalance = -26,
			SplitToningHighlightHue = 37,
			SplitToningHighlightSaturation = 15,
			SplitToningShadowHue = 225,
			SplitToningShadowSaturation = 6,
			Temperature = 4758,
			Tint = 0,
			ToneCurveName2012 = "Custom",
			ToneCurvePV2012 = {
				0,
				16,
				119,
				124,
				187,
				196,
				255,
				251,
			},
			ToneCurvePV2012Blue = {
				0,
				0,
				255,
				255,
			},
			ToneCurvePV2012Green = {
				0,
				0,
				255,
				255,
			},
			ToneCurvePV2012Red = {
				0,
				0,
				255,
				255,
			},
			UprightCenterMode = 0,
			UprightCenterNormX = 0.5,
			UprightCenterNormY = 0.5,
			UprightFocalLength35mm = 35,
			UprightFocalMode = 0,
			UprightFourSegmentsCount = 0,
			UprightPreview = false,
			UprightTransformCount = 6,
			UprightVersion = 151388160,
			Vibrance = 12,
			VignetteAmount = 0,
			VignetteMidpoint = 50,
			WhiteBalance = "Custom",
			Whites2012 = 33,
			orientation = "AB",
		},
		uuid = "9F19BE58-5B8D-478E-B8E7-80D60AA13077",
	},
	version = 0,
}
