FreePresets/Presetpro - Vegas Lights.lrtemplate
s = {
	id = "A4110861-5BBE-4605-B52E-93123FBF0737",
	internalName = "Presetpro - Vegas Lights",
	title = "Presetpro - Vegas Lights",
	type = "Develop",
	value = {
		settings = {
			Blacks2012 = 73,
			BlueHue = 0,
			BlueSaturation = 0,
			CameraProfile = "Adobe Standard",
			CircularGradientBasedCorrections = {
				{
					CorrectionActive = true,
					CorrectionAmount = 1,
					CorrectionID = "00FE963D-E6FE-45C4-837F-261193DA3155",
					CorrectionMasks = {
						{
							Angle = 0,
							Bottom = 0.926316,
							Feather = 50,
							Flipped = false,
							Left = 0.059814,
							MaskID = "BB2E5169-D431-4E87-B3B9-BBB2FE1D4F77",
							MaskValue = 1,
							Midpoint = 50,
							Right = 0.949383,
							Roundness = 0,
							Top = 0.056004,
							Version = 2,
							What = "Mask/CircularGradient",
						},
					},
					CorrectionReferenceX = 0.504598,
					CorrectionReferenceY = 0.49116,
					LocalBrightness = 0,
					LocalClarity = 0,
					LocalClarity2012 = 0,
					LocalContrast = 0,
					LocalContrast2012 = 0,
					LocalDefringe = 0,
					LocalExposure = 0,
					LocalExposure2012 = 0,
					LocalHighlights2012 = 0,
					LocalLuminanceNoise = 0,
					LocalMoire = 0,
					LocalSaturation = 0,
					LocalShadows2012 = 0.003072,
					LocalSharpness = 0,
					LocalTemperature = 0,
					LocalTint = 0,
					LocalToningHue = 333.547,
					LocalToningSaturation = 0,
					What = "Correction",
				},
			},
			Clarity2012 = 30,
			ColorNoiseReduction = 42,
			ColorNoiseReductionDetail = 50,
			ColorNoiseReductionSmoothness = 50,
			Contrast2012 = 23,
			ConvertToGrayscale = false,
			Dehaze = 0,
			EnableCalibration = true,
			EnableCircularGradientBasedCorrections = true,
			EnableColorAdjustments = true,
			EnableDetail = true,
			EnableEffects = true,
			EnableGradientBasedCorrections = true,
			EnableSplitToning = true,
			Exposure2012 = 0.1,
			GradientBasedCorrections = {
				{
					CorrectionActive = true,
					CorrectionAmount = 1,
					CorrectionID = "DDF132F7-2A62-4573-BD60-9D3A11F0B471",
					CorrectionMasks = {
						{
							FullX = 0.509558,
							FullY = 0.020591,
							MaskID = "B69A681F-4CF4-4805-999C-E9DC99E2EE16",
							MaskValue = 1,
							What = "Mask/Gradient",
							ZeroX = 0.510947,
							ZeroY = 0.560923,
						},
					},
					CorrectionReferenceX = 0.510252,
					CorrectionReferenceY = 0.290757,
					LocalBrightness = 0,
					LocalClarity = 0,
					LocalClarity2012 = 0,
					LocalContrast = 0,
					LocalContrast2012 = 0,
					LocalDefringe = 0,
					LocalExposure = 0,
					LocalExposure2012 = 0,
					LocalHighlights2012 = 0,
					LocalLuminanceNoise = 0,
					LocalMoire = 0,
					LocalSaturation = 0,
					LocalShadows2012 = 0,
					LocalSharpness = 0,
					LocalTemperature = 0,
					LocalTint = 0,
					LocalToningHue = 0,
					LocalToningSaturation = 0,
					What = "Correction",
				},
				{
					CorrectionActive = true,
					CorrectionAmount = 1,
					CorrectionID = "3686D5B2-F3D5-484A-A71A-93ADFE2090E8",
					CorrectionMasks = {
						{
							FullX = 0.193668,
							FullY = 0.730726,
							MaskID = "B8AB43C8-E717-45EC-BC85-2E6301822B89",
							MaskValue = 1,
							What = "Mask/Gradient",
							ZeroX = -0.214556,
							ZeroY = 0.715131,
						},
					},
					CorrectionReferenceX = -0.010444,
					CorrectionReferenceY = 0.722928,
					LocalBrightness = 0,
					LocalClarity = 0,
					LocalClarity2012 = 0.100745,
					LocalContrast = 0,
					LocalContrast2012 = 0,
					LocalDefringe = 0,
					LocalExposure = 0,
					LocalExposure2012 = 0,
					LocalHighlights2012 = 0,
					LocalLuminanceNoise = 0,
					LocalMoire = 0,
					LocalSaturation = 0,
					LocalShadows2012 = 0,
					LocalSharpness = 0,
					LocalTemperature = 0,
					LocalTint = 0,
					LocalToningHue = 0,
					LocalToningSaturation = 0,
					What = "Correction",
				},
				{
					CorrectionActive = true,
					CorrectionAmount = 1,
					CorrectionID = "906C866C-D012-4956-9AFB-AAA93C29FCDB",
					CorrectionMasks = {
						{
							FullX = 1.11071,
							FullY = 0.759723,
							MaskID = "5ECCA5F2-4B5D-409B-AD4C-E3FB61459C96",
							MaskValue = 1,
							What = "Mask/Gradient",
							ZeroX = 0.889055,
							ZeroY = 0.731683,
						},
					},
					CorrectionReferenceX = 0.999883,
					CorrectionReferenceY = 0.745703,
					LocalBrightness = 0,
					LocalClarity = 0,
					LocalClarity2012 = 0,
					LocalContrast = 0,
					LocalContrast2012 = 0,
					LocalDefringe = 0,
					LocalExposure = 0,
					LocalExposure2012 = 0,
					LocalHighlights2012 = 0,
					LocalLuminanceNoise = 0,
					LocalMoire = 0,
					LocalSaturation = 0,
					LocalShadows2012 = 0,
					LocalSharpness = 0,
					LocalTemperature = 0,
					LocalTint = 0,
					LocalToningHue = 0,
					LocalToningSaturation = 0,
					What = "Correction",
				},
				{
					CorrectionActive = true,
					CorrectionAmount = 1,
					CorrectionID = "1179D77C-E31E-40D5-979E-37493743E87E",
					CorrectionMasks = {
						{
							FullX = 0.517116,
							FullY = 1.00816,
							MaskID = "5E00D56D-C8AF-4BA0-AFDD-7CDBADADE30C",
							MaskValue = 1,
							What = "Mask/Gradient",
							ZeroX = 0.517005,
							ZeroY = 0.632972,
						},
					},
					CorrectionReferenceX = 0.517061,
					CorrectionReferenceY = 0.820566,
					LocalBlacks2012 = 0,
					LocalBrightness = 0,
					LocalClarity = 0,
					LocalClarity2012 = 0,
					LocalContrast = 0,
					LocalContrast2012 = 0,
					LocalDefringe = 0,
					LocalDehaze = 0,
					LocalExposure = 0,
					LocalExposure2012 = 0,
					LocalHighlights2012 = 0,
					LocalLuminanceNoise = 0,
					LocalMoire = 0,
					LocalSaturation = 0,
					LocalShadows2012 = 0,
					LocalSharpness = 0,
					LocalTemperature = 0,
					LocalTint = 0,
					LocalToningHue = 240,
					LocalToningSaturation = 0,
					LocalWhites2012 = 0,
					What = "Correction",
				},
				{
					CorrectionActive = true,
					CorrectionAmount = 1,
					CorrectionID = "5AE38A39-9679-4694-BD5E-2C2260378FD1",
					CorrectionMasks = {
						{
							FullX = 0.502473,
							FullY = -0.019651,
							MaskID = "13BD3083-F15B-4DBB-8055-356D2C3B2A66",
							MaskValue = 1,
							What = "Mask/Gradient",
							ZeroX = 0.504442,
							ZeroY = 0.287861,
						},
					},
					CorrectionReferenceX = 0.503457,
					CorrectionReferenceY = 0.134105,
					LocalBlacks2012 = 0,
					LocalBrightness = 0,
					LocalClarity = 0,
					LocalClarity2012 = 0,
					LocalContrast = 0,
					LocalContrast2012 = 0,
					LocalDefringe = 0,
					LocalDehaze = 0,
					LocalExposure = 0,
					LocalExposure2012 = 0,
					LocalHighlights2012 = 0,
					LocalLuminanceNoise = 0,
					LocalMoire = 0,
					LocalSaturation = 0,
					LocalShadows2012 = 0,
					LocalSharpness = 0,
					LocalTemperature = 0,
					LocalTint = 0,
					LocalToningHue = 240,
					LocalToningSaturation = 0,
					LocalWhites2012 = 0,
					What = "Correction",
				},
				{
					CorrectionActive = true,
					CorrectionAmount = 1,
					CorrectionID = "D68A935F-9271-4059-AC79-865C484405DF",
					CorrectionMasks = {
						{
							FullX = 0.512648,
							FullY = 1.05842,
							MaskID = "E4C149FB-1A91-4AB9-B319-0D79E771C1BA",
							MaskValue = 1,
							What = "Mask/Gradient",
							ZeroX = 0.512602,
							ZeroY = 1.07769,
						},
					},
					CorrectionReferenceX = 0.512625,
					CorrectionReferenceY = 1.06805,
					LocalBlacks2012 = 0,
					LocalBrightness = 0,
					LocalClarity = 0,
					LocalClarity2012 = -0.222522,
					LocalContrast = 0,
					LocalContrast2012 = 0,
					LocalDefringe = 0,
					LocalDehaze = 0,
					LocalExposure = 0,
					LocalExposure2012 = 0,
					LocalHighlights2012 = -0.131466,
					LocalLuminanceNoise = 0.144846,
					LocalMoire = 0,
					LocalSaturation = 0,
					LocalShadows2012 = 0,
					LocalSharpness = 0.193247,
					LocalTemperature = 0,
					LocalTint = 0,
					LocalToningHue = 240,
					LocalToningSaturation = 0,
					LocalWhites2012 = -0.082256,
					What = "Correction",
				},
			},
			GrainAmount = 0,
			GrainFrequency = 50,
			GrainSize = 25,
			GreenHue = 0,
			GreenSaturation = 0,
			Highlights2012 = -68,
			HueAdjustmentAqua = 0,
			HueAdjustmentBlue = 0,
			HueAdjustmentGreen = 0,
			HueAdjustmentMagenta = 0,
			HueAdjustmentOrange = 0,
			HueAdjustmentPurple = 0,
			HueAdjustmentRed = 0,
			HueAdjustmentYellow = 0,
			LuminanceAdjustmentAqua = 5,
			LuminanceAdjustmentBlue = 0,
			LuminanceAdjustmentGreen = 0,
			LuminanceAdjustmentMagenta = 0,
			LuminanceAdjustmentOrange = 11,
			LuminanceAdjustmentPurple = 0,
			LuminanceAdjustmentRed = 9,
			LuminanceAdjustmentYellow = 0,
			LuminanceNoiseReductionContrast = 0,
			LuminanceNoiseReductionDetail = 14,
			LuminanceSmoothing = 14,
			ParametricDarks = 0,
			ParametricHighlightSplit = 75,
			ParametricHighlights = 0,
			ParametricLights = 0,
			ParametricMidtoneSplit = 50,
			ParametricShadowSplit = 25,
			ParametricShadows = 0,
			PostCropVignetteAmount = 0,
			PostCropVignetteFeather = 100,
			PostCropVignetteHighlightContrast = 0,
			PostCropVignetteMidpoint = 0,
			PostCropVignetteRoundness = 0,
			PostCropVignetteStyle = 1,
			ProcessVersion = "6.7",
			RedHue = 0,
			RedSaturation = 0,
			Saturation = 0,
			SaturationAdjustmentAqua = 0,
			SaturationAdjustmentBlue = 0,
			SaturationAdjustmentGreen = 0,
			SaturationAdjustmentMagenta = 0,
			SaturationAdjustmentOrange = -13,
			SaturationAdjustmentPurple = 0,
			SaturationAdjustmentRed = 0,
			SaturationAdjustmentYellow = -18,
			ShadowTint = 0,
			Shadows2012 = 56,
			SharpenDetail = 50,
			SharpenEdgeMasking = 0,
			SharpenRadius = 1,
			Sharpness = 91,
			SplitToningBalance = 0,
			SplitToningHighlightHue = 60,
			SplitToningHighlightSaturation = 6,
			SplitToningShadowHue = 0,
			SplitToningShadowSaturation = 6,
			ToneCurveName2012 = "Custom",
			ToneCurvePV2012 = {
				0,
				0,
				59,
				51,
				127,
				134,
				184,
				198,
				255,
				255,
			},
			ToneCurvePV2012Blue = {
				0,
				0,
				255,
				255,
			},
			ToneCurvePV2012Green = {
				0,
				0,
				255,
				255,
			},
			ToneCurvePV2012Red = {
				0,
				0,
				255,
				255,
			},
			Vibrance = 0,
			WhiteBalance = "As Shot",
			Whites2012 = 60,
			orientation = "AB",
		},
		uuid = "CDC3B22B-E142-4940-9BB7-879A99809FBE",
	},
	version = 0,
}
