FreePresets/Presetpro - Buggy.lrtemplate
s = {
	id = "6E0CB543-9D1D-4F27-B11C-EFD7F440F6A6",
	internalName = "Presetpro - Buggy",
	title = "Presetpro - Buggy",
	type = "Develop",
	value = {
		settings = {
			AutoLateralCA = 1,
			Blacks2012 = 0,
			BlueHue = 0,
			BlueSaturation = 11,
			CameraProfile = "Adobe Standard",
			ChromaticAberrationB = 0,
			ChromaticAberrationR = 0,
			CircularGradientBasedCorrections = {
				{
					CorrectionActive = true,
					CorrectionAmount = 1,
					CorrectionID = "00FE963D-E6FE-45C4-837F-261193DA3155",
					CorrectionMasks = {
						{
							Angle = 0,
							Bottom = 0.921987,
							Feather = 50,
							Flipped = false,
							Left = 0.064629,
							MaskID = "BB2E5169-D431-4E87-B3B9-BBB2FE1D4F77",
							MaskValue = 1,
							Midpoint = 50,
							Right = 0.954198,
							Roundness = 0,
							Top = 0.051675,
							Version = 2,
							What = "Mask/CircularGradient",
						},
					},
					CorrectionRangeMask = {
						ColorAmount = 0.5,
						LumFeather = 0.5,
						LumMax = 1,
						LumMin = 0,
						Type = 0,
					},
					CorrectionReferenceX = 0.509413,
					CorrectionReferenceY = 0.486831,
					LocalBrightness = 0,
					LocalClarity = 0,
					LocalClarity2012 = -0.036156,
					LocalContrast = 0,
					LocalContrast2012 = 0.129179,
					LocalDefringe = 0,
					LocalExposure = 0,
					LocalExposure2012 = -0.097561,
					LocalHighlights2012 = 0,
					LocalLuminanceNoise = 0,
					LocalMoire = 0,
					LocalSaturation = -0.089463,
					LocalShadows2012 = 0.003072,
					LocalSharpness = 0.123183,
					LocalTemperature = -0.074028,
					LocalTint = 0,
					LocalToningHue = 333.547,
					LocalToningSaturation = 0,
					What = "Correction",
				},
			},
			Clarity2012 = 0,
			ColorNoiseReduction = 25,
			ColorNoiseReductionDetail = 50,
			ColorNoiseReductionSmoothness = 50,
			Contrast2012 = -15,
			ConvertToGrayscale = false,
			CropConstrainToWarp = 0,
			Defringe = 0,
			DefringeGreenAmount = 0,
			DefringeGreenHueHi = 60,
			DefringeGreenHueLo = 40,
			DefringePurpleAmount = 0,
			DefringePurpleHueHi = 70,
			DefringePurpleHueLo = 30,
			Dehaze = 0,
			EnableCalibration = true,
			EnableCircularGradientBasedCorrections = true,
			EnableColorAdjustments = true,
			EnableDetail = true,
			EnableEffects = true,
			EnableGradientBasedCorrections = true,
			EnableLensCorrections = true,
			EnableSplitToning = true,
			GradientBasedCorrections = {
				{
					CorrectionActive = true,
					CorrectionAmount = 1,
					CorrectionID = "DDF132F7-2A62-4573-BD60-9D3A11F0B471",
					CorrectionMasks = {
						{
							FullX = 0.979409,
							FullY = 0.509558,
							MaskID = "B69A681F-4CF4-4805-999C-E9DC99E2EE16",
							MaskValue = 1,
							What = "Mask/Gradient",
							ZeroX = 0.439077,
							ZeroY = 0.510947,
						},
					},
					CorrectionRangeMask = {
						ColorAmount = 0.5,
						LumFeather = 0.5,
						LumMax = 1,
						LumMin = 0,
						Type = 0,
					},
					CorrectionReferenceX = 0.709243,
					CorrectionReferenceY = 0.510252,
					LocalBrightness = 0,
					LocalClarity = 0,
					LocalClarity2012 = 0,
					LocalContrast = 0,
					LocalContrast2012 = 0,
					LocalDefringe = 0,
					LocalExposure = 0,
					LocalExposure2012 = 0,
					LocalHighlights2012 = 0,
					LocalLuminanceNoise = 0,
					LocalMoire = 0,
					LocalSaturation = 0,
					LocalShadows2012 = 0,
					LocalSharpness = 0,
					LocalTemperature = 0,
					LocalTint = 0,
					LocalToningHue = 0,
					LocalToningSaturation = 0,
					What = "Correction",
				},
				{
					CorrectionActive = true,
					CorrectionAmount = 1,
					CorrectionID = "3686D5B2-F3D5-484A-A71A-93ADFE2090E8",
					CorrectionMasks = {
						{
							FullX = 0.269274,
							FullY = 0.193668,
							MaskID = "B8AB43C8-E717-45EC-BC85-2E6301822B89",
							MaskValue = 1,
							What = "Mask/Gradient",
							ZeroX = 0.284869,
							ZeroY = -0.21456,
						},
					},
					CorrectionRangeMask = {
						ColorAmount = 0.5,
						LumFeather = 0.5,
						LumMax = 1,
						LumMin = 0,
						Type = 0,
					},
					CorrectionReferenceX = 0.277072,
					CorrectionReferenceY = -0.010446,
					LocalBrightness = 0,
					LocalClarity = 0,
					LocalClarity2012 = 0.100745,
					LocalContrast = 0,
					LocalContrast2012 = 0,
					LocalDefringe = 0,
					LocalExposure = 0,
					LocalExposure2012 = 0,
					LocalHighlights2012 = 0,
					LocalLuminanceNoise = 0,
					LocalMoire = 0,
					LocalSaturation = 0,
					LocalShadows2012 = 0,
					LocalSharpness = 0,
					LocalTemperature = 0,
					LocalTint = 0,
					LocalToningHue = 0,
					LocalToningSaturation = 0,
					What = "Correction",
				},
				{
					CorrectionActive = true,
					CorrectionAmount = 1,
					CorrectionID = "906C866C-D012-4956-9AFB-AAA93C29FCDB",
					CorrectionMasks = {
						{
							FullX = 0.240277,
							FullY = 1.11071,
							MaskID = "5ECCA5F2-4B5D-409B-AD4C-E3FB61459C96",
							MaskValue = 1,
							What = "Mask/Gradient",
							ZeroX = 0.268317,
							ZeroY = 0.889055,
						},
					},
					CorrectionRangeMask = {
						ColorAmount = 0.5,
						LumFeather = 0.5,
						LumMax = 1,
						LumMin = 0,
						Type = 0,
					},
					CorrectionReferenceX = 0.254297,
					CorrectionReferenceY = 0.999883,
					LocalBrightness = 0,
					LocalClarity = 0,
					LocalClarity2012 = 0,
					LocalContrast = 0,
					LocalContrast2012 = 0,
					LocalDefringe = 0,
					LocalExposure = 0,
					LocalExposure2012 = 0,
					LocalHighlights2012 = 0,
					LocalLuminanceNoise = 0,
					LocalMoire = 0,
					LocalSaturation = 0,
					LocalShadows2012 = 0,
					LocalSharpness = 0,
					LocalTemperature = 0,
					LocalTint = 0,
					LocalToningHue = 0,
					LocalToningSaturation = 0,
					What = "Correction",
				},
				{
					CorrectionActive = true,
					CorrectionAmount = 1,
					CorrectionID = "21CBA322-4C4D-4357-B6D5-1F5A36F646A0",
					CorrectionMasks = {
						{
							FullX = 1.04032,
							FullY = 0.506528,
							MaskID = "5B8E1C35-0F34-418E-A0C3-0E2DBBE4CFD2",
							MaskValue = 1,
							What = "Mask/Gradient",
							ZeroX = 0.634229,
							ZeroY = 0.50484,
						},
					},
					CorrectionRangeMask = {
						ColorAmount = 0.5,
						LumFeather = 0.5,
						LumMax = 1,
						LumMin = 0,
						Type = 0,
					},
					CorrectionReferenceX = 0.837274,
					CorrectionReferenceY = 0.505684,
					LocalBlacks2012 = 0,
					LocalBrightness = 0,
					LocalClarity = 0,
					LocalClarity2012 = 0,
					LocalContrast = 0,
					LocalContrast2012 = 0,
					LocalDefringe = 0,
					LocalDehaze = 0,
					LocalExposure = 0,
					LocalExposure2012 = 0,
					LocalHighlights2012 = 0,
					LocalLuminanceNoise = 0,
					LocalMoire = 0,
					LocalSaturation = 0,
					LocalShadows2012 = 0,
					LocalSharpness = 0,
					LocalTemperature = 0,
					LocalTint = 0,
					LocalToningHue = 0,
					LocalToningSaturation = 0,
					LocalWhites2012 = 0,
					What = "Correction",
				},
				{
					CorrectionActive = true,
					CorrectionAmount = 1,
					CorrectionID = "97183DC0-CC8D-4DB6-AA5E-D6D1A3C63648",
					CorrectionMasks = {
						{
							FullX = -0.02976,
							FullY = 0.511984,
							MaskID = "C7FE5264-267B-491D-9524-A229D3CCFCF6",
							MaskValue = 1,
							What = "Mask/Gradient",
							ZeroX = 0.383242,
							ZeroY = 0.511151,
						},
					},
					CorrectionRangeMask = {
						ColorAmount = 0.5,
						LumFeather = 0.5,
						LumMax = 1,
						LumMin = 0,
						Type = 0,
					},
					CorrectionReferenceX = 0.176741,
					CorrectionReferenceY = 0.511567,
					LocalBlacks2012 = 0,
					LocalBrightness = 0,
					LocalClarity = 0,
					LocalClarity2012 = 0,
					LocalContrast = 0,
					LocalContrast2012 = 0,
					LocalDefringe = 0,
					LocalDehaze = 0,
					LocalExposure = 0,
					LocalExposure2012 = 0,
					LocalHighlights2012 = 0,
					LocalLuminanceNoise = 0,
					LocalMoire = 0,
					LocalSaturation = 0,
					LocalShadows2012 = 0,
					LocalSharpness = 0,
					LocalTemperature = 0,
					LocalTint = 0,
					LocalToningHue = 0,
					LocalToningSaturation = 0,
					LocalWhites2012 = 0,
					What = "Correction",
				},
			},
			GrainAmount = 0,
			GrainFrequency = 50,
			GrainSize = 25,
			GreenHue = 0,
			GreenSaturation = 0,
			Highlights2012 = -65,
			HueAdjustmentAqua = 0,
			HueAdjustmentBlue = 0,
			HueAdjustmentGreen = 0,
			HueAdjustmentMagenta = 0,
			HueAdjustmentOrange = 0,
			HueAdjustmentPurple = 0,
			HueAdjustmentRed = 0,
			HueAdjustmentYellow = 0,
			LensManualDistortionAmount = 0,
			LensProfileEnable = 0,
			LensProfileSetup = "LensDefaults",
			LuminanceAdjustmentAqua = -38,
			LuminanceAdjustmentBlue = -16,
			LuminanceAdjustmentGreen = -57,
			LuminanceAdjustmentMagenta = 0,
			LuminanceAdjustmentOrange = -6,
			LuminanceAdjustmentPurple = 0,
			LuminanceAdjustmentRed = -5,
			LuminanceAdjustmentYellow = -65,
			LuminanceNoiseReductionContrast = 0,
			LuminanceNoiseReductionDetail = 50,
			LuminanceSmoothing = 0,
			ParametricDarks = 0,
			ParametricHighlightSplit = 75,
			ParametricHighlights = -15,
			ParametricLights = 0,
			ParametricMidtoneSplit = 50,
			ParametricShadowSplit = 25,
			ParametricShadows = 10,
			PostCropVignetteAmount = -8,
			PostCropVignetteFeather = 74,
			PostCropVignetteHighlightContrast = 0,
			PostCropVignetteMidpoint = 51,
			PostCropVignetteRoundness = -51,
			PostCropVignetteStyle = 1,
			ProcessVersion = "10.0",
			RedHue = 0,
			RedSaturation = 5,
			Saturation = 0,
			SaturationAdjustmentAqua = 0,
			SaturationAdjustmentBlue = 0,
			SaturationAdjustmentGreen = 0,
			SaturationAdjustmentMagenta = 0,
			SaturationAdjustmentOrange = 0,
			SaturationAdjustmentPurple = 0,
			SaturationAdjustmentRed = 0,
			SaturationAdjustmentYellow = 0,
			ShadowTint = 0,
			Shadows2012 = 55,
			SharpenDetail = 25,
			SharpenEdgeMasking = 11,
			SharpenRadius = 1,
			Sharpness = 35,
			SplitToningBalance = -56,
			SplitToningHighlightHue = 47,
			SplitToningHighlightSaturation = 16,
			SplitToningShadowHue = 231,
			SplitToningShadowSaturation = 14,
			ToneCurveName2012 = "Custom",
			ToneCurvePV2012 = {
				0,
				30,
				39,
				43,
				83,
				83,
				255,
				255,
			},
			ToneCurvePV2012Blue = {
				0,
				0,
				69,
				52,
				131,
				127,
				194,
				199,
				255,
				255,
			},
			ToneCurvePV2012Green = {
				0,
				0,
				71,
				58,
				131,
				127,
				186,
				192,
				255,
				255,
			},
			ToneCurvePV2012Red = {
				0,
				0,
				67,
				55,
				131,
				127,
				189,
				199,
				255,
				255,
			},
			Vibrance = 10,
			VignetteAmount = 0,
			VignetteMidpoint = 50,
			WhiteBalance = "As Shot",
			Whites2012 = 14,
			orientation = "DA",
		},
		uuid = "665BB11B-F875-429C-9CA7-8AE0A585CBED",
	},
	version = 0,
}
