FreePresets/Presetpro - Faux HDR.lrtemplate
s = {
	id = "A6807CA1-E562-468C-B40D-B5958B0B8F5D",
	internalName = "Presetpro - Faux HDR",
	title = "Presetpro - Faux HDR",
	type = "Develop",
	value = {
		settings = {
			Blacks2012 = 100,
			BlueHue = 0,
			BlueSaturation = 0,
			CameraProfile = "Adobe Standard",
			CircularGradientBasedCorrections = {
				{
					CorrectionActive = true,
					CorrectionAmount = 1,
					CorrectionID = "00FE963D-E6FE-45C4-837F-261193DA3155",
					CorrectionMasks = {
						{
							Angle = 0,
							Bottom = 0.897531,
							Feather = 50,
							Flipped = false,
							Left = 0.19884,
							MaskID = "BB2E5169-D431-4E87-B3B9-BBB2FE1D4F77",
							MaskValue = 1,
							Midpoint = 50,
							Right = 0.786151,
							Roundness = 0,
							Top = 0.142227,
							Version = 2,
							What = "Mask/CircularGradient",
						},
					},
					CorrectionReferenceX = 0.492496,
					CorrectionReferenceY = 0.519879,
					LocalBrightness = 0,
					LocalClarity = 0,
					LocalClarity2012 = -0.196857,
					LocalContrast = 0,
					LocalContrast2012 = 0.392351,
					LocalDefringe = 0,
					LocalExposure = 0,
					LocalExposure2012 = 0,
					LocalHighlights2012 = 0,
					LocalLuminanceNoise = 0,
					LocalMoire = 0,
					LocalSaturation = 0,
					LocalShadows2012 = 0.003072,
					LocalSharpness = 0.178779,
					LocalTemperature = 0.049908,
					LocalTint = 0,
					LocalToningHue = 333.547,
					LocalToningSaturation = 0,
					What = "Correction",
				},
			},
			Clarity2012 = -13,
			ColorNoiseReduction = 41,
			ColorNoiseReductionDetail = 50,
			ColorNoiseReductionSmoothness = 50,
			Contrast2012 = 26,
			ConvertToGrayscale = false,
			Dehaze = 0,
			EnableCalibration = true,
			EnableCircularGradientBasedCorrections = true,
			EnableColorAdjustments = true,
			EnableDetail = true,
			EnableEffects = true,
			EnableGradientBasedCorrections = true,
			EnableSplitToning = true,
			Exposure2012 = 0.25,
			GradientBasedCorrections = {
				{
					CorrectionActive = true,
					CorrectionAmount = 1,
					CorrectionID = "DDF132F7-2A62-4573-BD60-9D3A11F0B471",
					CorrectionMasks = {
						{
							FullX = 0.509558,
							FullY = 0.020591,
							MaskID = "B69A681F-4CF4-4805-999C-E9DC99E2EE16",
							MaskValue = 1,
							What = "Mask/Gradient",
							ZeroX = 0.510752,
							ZeroY = 0.485228,
						},
					},
					CorrectionReferenceX = 0.74709,
					CorrectionReferenceY = 0.510155,
					LocalBrightness = 0,
					LocalClarity = 0,
					LocalClarity2012 = 0,
					LocalContrast = 0,
					LocalContrast2012 = 0,
					LocalDefringe = 0,
					LocalExposure = 0,
					LocalExposure2012 = -0.204993,
					LocalHighlights2012 = 0,
					LocalLuminanceNoise = 0,
					LocalMoire = 0,
					LocalSaturation = 0,
					LocalShadows2012 = 0,
					LocalSharpness = 0,
					LocalTemperature = 0,
					LocalTint = 0,
					LocalToningHue = 0,
					LocalToningSaturation = 0,
					What = "Correction",
				},
				{
					CorrectionActive = true,
					CorrectionAmount = 1,
					CorrectionID = "3686D5B2-F3D5-484A-A71A-93ADFE2090E8",
					CorrectionMasks = {
						{
							FullX = 0.14005,
							FullY = 0.487953,
							MaskID = "B8AB43C8-E717-45EC-BC85-2E6301822B89",
							MaskValue = 1,
							What = "Mask/Gradient",
							ZeroX = -0.184588,
							ZeroY = 0.623993,
						},
					},
					CorrectionReferenceX = 0.444027,
					CorrectionReferenceY = -0.022269,
					LocalBrightness = 0,
					LocalClarity = 0,
					LocalClarity2012 = 1,
					LocalContrast = 0,
					LocalContrast2012 = 0,
					LocalDefringe = 0,
					LocalExposure = 0,
					LocalExposure2012 = 0,
					LocalHighlights2012 = 0,
					LocalLuminanceNoise = 0,
					LocalMoire = 0,
					LocalSaturation = 0,
					LocalShadows2012 = 0,
					LocalSharpness = 0,
					LocalTemperature = 0,
					LocalTint = 0,
					LocalToningHue = 0,
					LocalToningSaturation = 0,
					What = "Correction",
				},
				{
					CorrectionActive = true,
					CorrectionAmount = 1,
					CorrectionID = "5BCDBDB5-801D-41B4-B671-19E20E325FD9",
					CorrectionMasks = {
						{
							FullX = 0.977897,
							FullY = 0.210385,
							MaskID = "F97C3C98-A51C-451D-8AE1-5BBBF0FF37ED",
							MaskValue = 1,
							What = "Mask/Gradient",
							ZeroX = 1.04421,
							ZeroY = 0.19248,
						},
					},
					CorrectionReferenceX = 0.798567,
					CorrectionReferenceY = 1.01105,
					LocalBrightness = 0,
					LocalClarity = 0,
					LocalClarity2012 = 1,
					LocalContrast = 0,
					LocalContrast2012 = 0,
					LocalDefringe = 0,
					LocalExposure = 0,
					LocalExposure2012 = 0,
					LocalHighlights2012 = 0,
					LocalLuminanceNoise = 0,
					LocalMoire = 0,
					LocalSaturation = 0,
					LocalShadows2012 = 0,
					LocalSharpness = 0,
					LocalTemperature = 0,
					LocalTint = 0,
					LocalToningHue = 0,
					LocalToningSaturation = 0,
					What = "Correction",
				},
			},
			GrainAmount = 0,
			GrainFrequency = 50,
			GrainSize = 25,
			GreenHue = 0,
			GreenSaturation = 0,
			Highlights2012 = -32,
			HueAdjustmentAqua = 0,
			HueAdjustmentBlue = 0,
			HueAdjustmentGreen = 0,
			HueAdjustmentMagenta = 0,
			HueAdjustmentOrange = 0,
			HueAdjustmentPurple = 0,
			HueAdjustmentRed = 0,
			HueAdjustmentYellow = 0,
			LuminanceAdjustmentAqua = -23,
			LuminanceAdjustmentBlue = -15,
			LuminanceAdjustmentGreen = -43,
			LuminanceAdjustmentMagenta = 0,
			LuminanceAdjustmentOrange = -25,
			LuminanceAdjustmentPurple = 0,
			LuminanceAdjustmentRed = -40,
			LuminanceAdjustmentYellow = -37,
			LuminanceNoiseReductionContrast = 0,
			LuminanceNoiseReductionDetail = 50,
			LuminanceSmoothing = 45,
			ParametricDarks = -13,
			ParametricHighlightSplit = 75,
			ParametricHighlights = 35,
			ParametricLights = -5,
			ParametricMidtoneSplit = 50,
			ParametricShadowSplit = 25,
			ParametricShadows = 0,
			PostCropVignetteAmount = -10,
			PostCropVignetteFeather = 100,
			PostCropVignetteHighlightContrast = 0,
			PostCropVignetteMidpoint = 29,
			PostCropVignetteRoundness = 0,
			PostCropVignetteStyle = 1,
			ProcessVersion = "6.7",
			RedHue = 0,
			RedSaturation = 0,
			Saturation = 0,
			SaturationAdjustmentAqua = 0,
			SaturationAdjustmentBlue = 0,
			SaturationAdjustmentGreen = -19,
			SaturationAdjustmentMagenta = 0,
			SaturationAdjustmentOrange = 0,
			SaturationAdjustmentPurple = 0,
			SaturationAdjustmentRed = 0,
			SaturationAdjustmentYellow = -19,
			ShadowTint = 0,
			Shadows2012 = 100,
			SharpenDetail = 25,
			SharpenEdgeMasking = 0,
			SharpenRadius = 1,
			Sharpness = 34,
			SplitToningBalance = 0,
			SplitToningHighlightHue = 0,
			SplitToningHighlightSaturation = 0,
			SplitToningShadowHue = 0,
			SplitToningShadowSaturation = 0,
			ToneCurveName2012 = "Custom",
			ToneCurvePV2012 = {
				0,
				0,
				129,
				123,
				255,
				255,
			},
			ToneCurvePV2012Blue = {
				0,
				0,
				255,
				255,
			},
			ToneCurvePV2012Green = {
				0,
				0,
				255,
				255,
			},
			ToneCurvePV2012Red = {
				0,
				0,
				255,
				255,
			},
			Vibrance = 18,
			WhiteBalance = "As Shot",
			Whites2012 = -57,
			orientation = "AB",
		},
		uuid = "E245EF9C-C454-4AE9-9152-4CCFCB32582B",
	},
	version = 0,
}
